static/img/kroki/fe98aaadf5410579bcfd5e8718630d58.svg

<?xml version="1.0" encoding="us-ascii" standalone="no"?><svg xmlns="http://www.w3.org/2000/svg" xmlns:xlink="http://www.w3.org/1999/xlink" contentStyleType="text/css" height="714px" preserveAspectRatio="none" style="width:469px;height:714px;" version="1.1" viewBox="0 0 469 714" width="469px" zoomAndPan="magnify"><defs/><g><!--class digitalocean_droplet_neighborhood--><g id="elem_digitalocean_droplet_neighborhood"><rect codeLine="22" fill="#3D176E" height="74.0859" id="digitalocean_droplet_neighborhood" rx="2.5" ry="2.5" style="stroke:#000D19;stroke-width:0.5;" width="335" x="73" y="633.84"/><ellipse cx="88" cy="653.7345" fill="#ADD1B2" rx="11" ry="11" style="stroke:#181818;stroke-width:1.0;"/><path d="M90.9688,659.3752 Q90.3906,659.672 89.75,659.8127 Q89.1094,659.9689 88.4063,659.9689 Q85.9063,659.9689 84.5781,658.3283 Q83.2656,656.672 83.2656,653.547 Q83.2656,650.422 84.5781,648.7658 Q85.9063,647.1095 88.4063,647.1095 Q89.1094,647.1095 89.75,647.2658 Q90.4063,647.422 90.9688,647.7189 L90.9688,650.4377 Q90.3438,649.8595 89.75,649.5939 Q89.1563,649.3127 88.5313,649.3127 Q87.1875,649.3127 86.5,650.3908 Q85.8125,651.4533 85.8125,653.547 Q85.8125,655.6408 86.5,656.7189 Q87.1875,657.7814 88.5313,657.7814 Q89.1563,657.7814 89.75,657.5158 Q90.3438,657.2345 90.9688,656.6564 L90.9688,659.3752 Z " fill="#000000"/><text fill="#D9B8FF" font-family="Helvetica" font-size="17" lengthAdjust="spacing" textLength="293" x="107" y="659.6198">digitalocean_droplet_neighborhood</text><line style="stroke:#000D19;stroke-width:0.5;" x1="74" x2="407" y1="673.6291" y2="673.6291"/><text fill="#D9B8FF" font-family="sans-serif" font-size="14" font-weight="bold" lengthAdjust="spacing" textLength="66" x="84" y="695.6242">droplets</text><text fill="#D9B8FF" font-family="sans-serif" font-size="14" lengthAdjust="spacing" textLength="58" x="150" y="695.6242">: string[]</text></g><!--class digitalocean_resource--><g id="elem_digitalocean_resource"><rect codeLine="25" fill="#3D176E" height="74.0859" id="digitalocean_resource" rx="2.5" ry="2.5" style="stroke:#000D19;stroke-width:0.5;" width="223" x="7" y="438.76"/><ellipse cx="22" cy="458.6545" fill="#ADD1B2" rx="11" ry="11" style="stroke:#181818;stroke-width:1.0;"/><path d="M24.9688,464.2952 Q24.3906,464.592 23.75,464.7327 Q23.1094,464.8889 22.4063,464.8889 Q19.9063,464.8889 18.5781,463.2483 Q17.2656,461.592 17.2656,458.467 Q17.2656,455.342 18.5781,453.6858 Q19.9063,452.0295 22.4063,452.0295 Q23.1094,452.0295 23.75,452.1858 Q24.4063,452.342 24.9688,452.6389 L24.9688,455.3577 Q24.3438,454.7795 23.75,454.5139 Q23.1563,454.2327 22.5313,454.2327 Q21.1875,454.2327 20.5,455.3108 Q19.8125,456.3733 19.8125,458.467 Q19.8125,460.5608 20.5,461.6389 Q21.1875,462.7014 22.5313,462.7014 Q23.1563,462.7014 23.75,462.4358 Q24.3438,462.1545 24.9688,461.5764 L24.9688,464.2952 Z " fill="#000000"/><text fill="#D9B8FF" font-family="Helvetica" font-size="17" lengthAdjust="spacing" textLength="181" x="41" y="464.5398">digitalocean_resource</text><line style="stroke:#000D19;stroke-width:0.5;" x1="8" x2="229" y1="478.5491" y2="478.5491"/><text fill="#D9B8FF" font-family="sans-serif" font-size="14" font-weight="bold" lengthAdjust="spacing" textLength="27" x="18" y="500.5442">urn</text><text fill="#D9B8FF" font-family="sans-serif" font-size="14" lengthAdjust="spacing" textLength="48" x="45" y="500.5442">: string</text></g><!--class phantom_resource--><g id="elem_phantom_resource"><rect codeLine="28" fill="#3D176E" height="39.7891" id="phantom_resource" rx="2.5" ry="2.5" style="stroke:#000D19;stroke-width:0.5;" width="198" x="264.5" y="455.91"/><ellipse cx="279.5" cy="475.8045" fill="#ADD1B2" rx="11" ry="11" style="stroke:#181818;stroke-width:1.0;"/><path d="M282.4688,481.4452 Q281.8906,481.742 281.25,481.8827 Q280.6094,482.0389 279.9063,482.0389 Q277.4063,482.0389 276.0781,480.3983 Q274.7656,478.742 274.7656,475.617 Q274.7656,472.492 276.0781,470.8358 Q277.4063,469.1795 279.9063,469.1795 Q280.6094,469.1795 281.25,469.3358 Q281.9063,469.492 282.4688,469.7889 L282.4688,472.5077 Q281.8438,471.9295 281.25,471.6639 Q280.6563,471.3827 280.0313,471.3827 Q278.6875,471.3827 278,472.4608 Q277.3125,473.5233 277.3125,475.617 Q277.3125,477.7108 278,478.7889 Q278.6875,479.8514 280.0313,479.8514 Q280.6563,479.8514 281.25,479.5858 Q281.8438,479.3045 282.4688,478.7264 L282.4688,481.4452 Z " fill="#000000"/><text fill="#D9B8FF" font-family="Helvetica" font-size="17" lengthAdjust="spacing" textLength="156" x="298.5" y="481.6898">phantom_resource</text></g><!--class resource--><g id="elem_resource"><rect codeLine="30" fill="#3D176E" height="310.7578" id="resource" rx="2.5" ry="2.5" style="stroke:#000D19;stroke-width:0.5;" width="227" x="127" y="7"/><ellipse cx="195.75" cy="26.8945" fill="#ADD1B2" rx="11" ry="11" style="stroke:#181818;stroke-width:1.0;"/><path d="M198.7188,32.5352 Q198.1406,32.832 197.5,32.9727 Q196.8594,33.1289 196.1563,33.1289 Q193.6563,33.1289 192.3281,31.4883 Q191.0156,29.832 191.0156,26.707 Q191.0156,23.582 192.3281,21.9258 Q193.6563,20.2695 196.1563,20.2695 Q196.8594,20.2695 197.5,20.4258 Q198.1563,20.582 198.7188,20.8789 L198.7188,23.5977 Q198.0938,23.0195 197.5,22.7539 Q196.9063,22.4727 196.2813,22.4727 Q194.9375,22.4727 194.25,23.5508 Q193.5625,24.6133 193.5625,26.707 Q193.5625,28.8008 194.25,29.8789 Q194.9375,30.9414 196.2813,30.9414 Q196.9063,30.9414 197.5,30.6758 Q198.0938,30.3945 198.7188,29.8164 L198.7188,32.5352 Z " fill="#000000"/><text fill="#D9B8FF" font-family="Helvetica" font-size="17" lengthAdjust="spacing" textLength="71" x="221.25" y="32.7798">resource</text><line style="stroke:#000D19;stroke-width:0.5;" x1="128" x2="353" y1="46.7891" y2="46.7891"/><text fill="#D9B8FF" font-family="sans-serif" font-size="14" font-weight="bold" lengthAdjust="spacing" textLength="29" x="138" y="68.7842">age</text><text fill="#D9B8FF" font-family="sans-serif" font-size="14" lengthAdjust="spacing" textLength="66" x="167" y="68.7842">: duration</text><text fill="#D9B8FF" font-family="sans-serif" font-size="14" font-weight="bold" lengthAdjust="spacing" textLength="43" x="138" y="95.0811">atime</text><text fill="#D9B8FF" font-family="sans-serif" font-size="14" lengthAdjust="spacing" textLength="70" x="181" y="95.0811">: datetime</text><text fill="#D9B8FF" font-family="sans-serif" font-size="14" font-weight="bold" lengthAdjust="spacing" textLength="43" x="138" y="121.3779">ctime</text><text fill="#D9B8FF" font-family="sans-serif" font-size="14" lengthAdjust="spacing" textLength="70" x="181" y="121.3779">: datetime</text><text fill="#D9B8FF" font-family="sans-serif" font-size="14" font-weight="bold" lengthAdjust="spacing" textLength="14" x="138" y="147.6748">id</text><text fill="#D9B8FF" font-family="sans-serif" font-size="14" lengthAdjust="spacing" textLength="48" x="152" y="147.6748">: string</text><text fill="#D9B8FF" font-family="sans-serif" font-size="14" font-weight="bold" lengthAdjust="spacing" textLength="33" x="138" y="173.9717">kind</text><text fill="#D9B8FF" font-family="sans-serif" font-size="14" lengthAdjust="spacing" textLength="48" x="171" y="173.9717">: string</text><text fill="#D9B8FF" font-family="sans-serif" font-size="14" font-weight="bold" lengthAdjust="spacing" textLength="90" x="138" y="200.2686">last_access</text><text fill="#D9B8FF" font-family="sans-serif" font-size="14" lengthAdjust="spacing" textLength="66" x="228" y="200.2686">: duration</text><text fill="#D9B8FF" font-family="sans-serif" font-size="14" font-weight="bold" lengthAdjust="spacing" textLength="90" x="138" y="226.5654">last_update</text><text fill="#D9B8FF" font-family="sans-serif" font-size="14" lengthAdjust="spacing" textLength="66" x="228" y="226.5654">: duration</text><text fill="#D9B8FF" font-family="sans-serif" font-size="14" font-weight="bold" lengthAdjust="spacing" textLength="48" x="138" y="252.8623">mtime</text><text fill="#D9B8FF" font-family="sans-serif" font-size="14" lengthAdjust="spacing" textLength="70" x="186" y="252.8623">: datetime</text><text fill="#D9B8FF" font-family="sans-serif" font-size="14" font-weight="bold" lengthAdjust="spacing" textLength="43" x="138" y="279.1592">name</text><text fill="#D9B8FF" font-family="sans-serif" font-size="14" lengthAdjust="spacing" textLength="48" x="181" y="279.1592">: string</text><text fill="#D9B8FF" font-family="sans-serif" font-size="14" font-weight="bold" lengthAdjust="spacing" textLength="34" x="138" y="305.4561">tags</text><text fill="#D9B8FF" font-family="sans-serif" font-size="14" lengthAdjust="spacing" textLength="171" x="172" y="305.4561">: dictionary[string, string]</text></g><!--reverse link digitalocean_resource to digitalocean_droplet_neighborhood--><g id="link_digitalocean_resource_digitalocean_droplet_neighborhood"><path codeLine="42" d="M151.0642,528.3373 C172.8042,562.7473 195.67,598.94 217.45,633.4 " fill="none" id="digitalocean_resource-backto-digitalocean_droplet_neighborhood" style="stroke:#FFAF37;stroke-width:2.0;"/><polygon fill="none" points="141.45,513.12,145.9918,531.5421,156.1366,525.1326,141.45,513.12" style="stroke:#FFAF37;stroke-width:2.0;"/></g><!--reverse link phantom_resource to digitalocean_droplet_neighborhood--><g id="link_phantom_resource_digitalocean_droplet_neighborhood"><path codeLine="43" d="M341.5889,511.2012 C321.2289,543.1612 289.77,592.55 263.76,633.37 " fill="none" id="phantom_resource-backto-digitalocean_droplet_neighborhood" style="stroke:#FFAF37;stroke-width:2.0;"/><polygon fill="none" points="351.26,496.02,336.5285,507.9775,346.6493,514.4249,351.26,496.02" style="stroke:#FFAF37;stroke-width:2.0;"/></g><!--reverse link resource to digitalocean_resource--><g id="link_resource_digitalocean_resource"><path codeLine="44" d="M173.2945,334.9399 C155.6545,379.9699 144.53,408.34 132.72,438.51 " fill="none" id="resource-backto-digitalocean_resource" style="stroke:#FFAF37;stroke-width:2.0;"/><polygon fill="none" points="179.86,318.18,167.7079,332.7514,178.8811,337.1284,179.86,318.18" style="stroke:#FFAF37;stroke-width:2.0;"/></g><!--reverse link resource to phantom_resource--><g id="link_resource_phantom_resource"><path codeLine="45" d="M308.251,334.922 C329.831,389.572 344.87,427.63 355.94,455.65 " fill="none" id="resource-backto-phantom_resource" style="stroke:#FFAF37;stroke-width:2.0;"/><polygon fill="none" points="301.64,318.18,302.6704,337.1257,313.8317,332.7183,301.64,318.18" style="stroke:#FFAF37;stroke-width:2.0;"/></g><!--SRC=[ZPDFYzim4CNl-HI2lPa6aYvjDgMNRQ2qbwLqUrjAc4XZMyJMcD6uI_hdkzUAarIHlKbluRtVp7iQaz8QL5WtibCrrXjaF_5RwnfWgDKzCpslg29MDtaE-UqYDJ-Iawl00zIeFc7r0yLgI8blfTLRXzwhrv7r0VIsO6gTwTSBW_ETXKuYQbM1z_SYR3UjO5J6B3TtUPwIwTARMpDVlCK1HcoG3yXiDZFpPOfSZRhuxXFnQ7-YciT7Uo31GSr1n9wws38GKSd1Gu_-Yns_W37M5UfDf7tjEx53FjCVIp3q7EWSAX_7U456abs3gy6hS7bdyiKe_FabM8VBAMCBAr2HHd1hmzHKA6k7jYWtn2MHKRycMNOmV9QzwrPpL-_f- -JFs0f6Jorht8-rxFvDdFYc12TKn-ZHEfk60iEqQHd4aWkAsBhNG33yxZGzebaJnMPPTvLpeSkIDMZT_LEIXBtJDc5NujGZEGvwwRHOeEWtMXt6W7TFlVVgm8IhZT_h_U_fT7hzSqm6r_lVmKi3Ho-5qh2_]--></g></svg>

<svg xmlns="http://www.w3.org/2000/svg" width="469" height="714" viewBox="0 0 469 714"><rect width="335" height="74.086" x="73" y="633.84" fill="#3D176E" rx="2.5" ry="2.5" style="stroke:#000d19;stroke-width:.5"/><circle cx="88" cy="653.735" r="11" fill="#ADD1B2" style="stroke:#181818;stroke-width:1"/><path d="M90.969 659.375q-.578.297-1.219.438-.64.156-1.344.156-2.5 0-3.828-1.64-1.312-1.657-1.312-4.782t1.312-4.781q1.328-1.656 3.828-1.656.703 0 1.344.156.656.156 1.219.453v2.719q-.625-.578-1.219-.844-.594-.281-1.219-.281-1.344 0-2.031 1.078-.687 1.062-.687 3.156t.687 3.172q.688 1.062 2.031 1.062.625 0 1.219-.265.594-.281 1.219-.86z"/><text x="107" y="659.62" fill="#D9B8FF" font-family="Helvetica" font-size="17" textLength="293">digitalocean_droplet_neighborhood</text><path d="M74 673.629h333" style="stroke:#000d19;stroke-width:.5"/><text x="84" y="695.624" fill="#D9B8FF" font-family="sans-serif" font-size="14" font-weight="bold" textLength="66">droplets</text><text x="150" y="695.624" fill="#D9B8FF" font-family="sans-serif" font-size="14" textLength="58">: string[]</text><rect width="223" height="74.086" x="7" y="438.76" fill="#3D176E" rx="2.5" ry="2.5" style="stroke:#000d19;stroke-width:.5"/><circle cx="22" cy="458.654" r="11" fill="#ADD1B2" style="stroke:#181818;stroke-width:1"/><path d="M24.969 464.295q-.578.297-1.219.438-.64.156-1.344.156-2.5 0-3.828-1.64-1.312-1.657-1.312-4.782t1.312-4.781q1.328-1.656 3.828-1.656.703 0 1.344.156.656.156 1.219.453v2.719q-.625-.579-1.219-.844-.594-.281-1.219-.281-1.343 0-2.031 1.078-.687 1.062-.687 3.156t.687 3.172q.688 1.062 2.031 1.062.625 0 1.219-.265.594-.281 1.219-.86z"/><text x="41" y="464.54" fill="#D9B8FF" font-family="Helvetica" font-size="17" textLength="181">digitalocean_resource</text><path d="M8 478.549h221" style="stroke:#000d19;stroke-width:.5"/><text x="18" y="500.544" fill="#D9B8FF" font-family="sans-serif" font-size="14" font-weight="bold" textLength="27">urn</text><text x="45" y="500.544" fill="#D9B8FF" font-family="sans-serif" font-size="14" textLength="48">: string</text><rect width="198" height="39.789" x="264.5" y="455.91" fill="#3D176E" rx="2.5" ry="2.5" style="stroke:#000d19;stroke-width:.5"/><circle cx="279.5" cy="475.805" r="11" fill="#ADD1B2" style="stroke:#181818;stroke-width:1"/><path d="M282.469 481.445q-.578.297-1.219.438-.64.156-1.344.156-2.5 0-3.828-1.64-1.312-1.657-1.312-4.782t1.312-4.781q1.328-1.656 3.828-1.656.703 0 1.344.156.656.156 1.219.453v2.719q-.625-.578-1.219-.844-.594-.281-1.219-.281-1.344 0-2.031 1.078-.687 1.062-.687 3.156t.687 3.172q.688 1.062 2.031 1.062.625 0 1.219-.265.594-.281 1.219-.86z"/><text x="298.5" y="481.69" fill="#D9B8FF" font-family="Helvetica" font-size="17" textLength="156">phantom_resource</text><rect width="227" height="310.758" x="127" y="7" fill="#3D176E" rx="2.5" ry="2.5" style="stroke:#000d19;stroke-width:.5"/><circle cx="195.75" cy="26.895" r="11" fill="#ADD1B2" style="stroke:#181818;stroke-width:1"/><path d="M198.719 32.535q-.578.297-1.219.438-.64.156-1.344.156-2.5 0-3.828-1.64-1.312-1.657-1.312-4.782t1.312-4.781q1.328-1.656 3.828-1.656.703 0 1.344.156.656.156 1.219.453v2.719q-.625-.578-1.219-.844-.594-.281-1.219-.281-1.344 0-2.031 1.078-.687 1.062-.687 3.156t.687 3.172q.688 1.062 2.031 1.062.625 0 1.219-.265.594-.281 1.219-.86z"/><text x="221.25" y="32.78" fill="#D9B8FF" font-family="Helvetica" font-size="17" textLength="71">resource</text><path d="M128 46.789h225" style="stroke:#000d19;stroke-width:.5"/><text x="138" y="68.784" fill="#D9B8FF" font-family="sans-serif" font-size="14" font-weight="bold" textLength="29">age</text><text x="167" y="68.784" fill="#D9B8FF" font-family="sans-serif" font-size="14" textLength="66">: duration</text><text x="138" y="95.081" fill="#D9B8FF" font-family="sans-serif" font-size="14" font-weight="bold" textLength="43">atime</text><text x="181" y="95.081" fill="#D9B8FF" font-family="sans-serif" font-size="14" textLength="70">: datetime</text><text x="138" y="121.378" fill="#D9B8FF" font-family="sans-serif" font-size="14" font-weight="bold" textLength="43">ctime</text><text x="181" y="121.378" fill="#D9B8FF" font-family="sans-serif" font-size="14" textLength="70">: datetime</text><text x="138" y="147.675" fill="#D9B8FF" font-family="sans-serif" font-size="14" font-weight="bold" textLength="14">id</text><text x="152" y="147.675" fill="#D9B8FF" font-family="sans-serif" font-size="14" textLength="48">: string</text><text x="138" y="173.972" fill="#D9B8FF" font-family="sans-serif" font-size="14" font-weight="bold" textLength="33">kind</text><text x="171" y="173.972" fill="#D9B8FF" font-family="sans-serif" font-size="14" textLength="48">: string</text><text x="138" y="200.269" fill="#D9B8FF" font-family="sans-serif" font-size="14" font-weight="bold" textLength="90">last_access</text><text x="228" y="200.269" fill="#D9B8FF" font-family="sans-serif" font-size="14" textLength="66">: duration</text><text x="138" y="226.565" fill="#D9B8FF" font-family="sans-serif" font-size="14" font-weight="bold" textLength="90">last_update</text><text x="228" y="226.565" fill="#D9B8FF" font-family="sans-serif" font-size="14" textLength="66">: duration</text><text x="138" y="252.862" fill="#D9B8FF" font-family="sans-serif" font-size="14" font-weight="bold" textLength="48">mtime</text><text x="186" y="252.862" fill="#D9B8FF" font-family="sans-serif" font-size="14" textLength="70">: datetime</text><text x="138" y="279.159" fill="#D9B8FF" font-family="sans-serif" font-size="14" font-weight="bold" textLength="43">name</text><text x="181" y="279.159" fill="#D9B8FF" font-family="sans-serif" font-size="14" textLength="48">: string</text><text x="138" y="305.456" fill="#D9B8FF" font-family="sans-serif" font-size="14" font-weight="bold" textLength="34">tags</text><text x="172" y="305.456" fill="#D9B8FF" font-family="sans-serif" font-size="14" textLength="171">: dictionary[string, string]</text><g fill="none"><path d="M151.064 528.337c21.74 34.41 44.606 70.603 66.386 105.063" style="stroke:#ffaf37;stroke-width:2"/><path d="m141.45 513.12 4.542 18.422 10.145-6.41z" style="stroke:#ffaf37;stroke-width:2"/></g><g fill="none"><path d="M341.589 511.201c-20.36 31.96-51.819 81.349-77.829 122.169" style="stroke:#ffaf37;stroke-width:2"/><path d="m351.26 496.02-14.731 11.958 10.12 6.447z" style="stroke:#ffaf37;stroke-width:2"/></g><path fill="none" d="M173.295 334.94c-17.64 45.03-28.765 73.4-40.575 103.57m47.14-120.33-12.152 14.571 11.173 4.377zm128.391 16.742c21.58 54.65 36.619 92.708 47.689 120.728m-54.3-137.47 1.03 18.946 11.162-4.408z" style="stroke:#ffaf37;stroke-width:2"/></svg>
